X:1
T:Title
%%score { ( 1 4 5 ) | ( 2 3 ) }
L:1/8
Q:1/4=156
M:4/4
K:Bb
V:1 treble nm="Grand Piano"
V:4 treble 
V:5 treble 
V:2 bass 
V:3 bass 
V:1
 D6 F2 | E2 D4 B,2 | E6 z2 | F2 E4 [B,C]2 | A6 G2 | F2 G2 E2 F2 | D4[K:bass] C4 | B,8 | %8
 D6[K:treble] F2 | E2 D4 B,2 | E6 z2 | F2 E4 [B,C]2 | A6 G2 | F2 G2 A2 F2 | G4 A4 | B8[K:bass] | %16
 D6 z2 | F2 E6 | E6 C2 | G2 F6 | F6[K:bass] z2 | D2 E2 F2 G2 | A4 B4 | c8 |[M:1/4] z2 | %25
[M:3/4] dB c2 A2 |[M:4/4] BAGF GABc | B2 dB c2 A2 | BAGF EFDC |[M:1/4] B,2 |[M:3/4] dB c2 A2 | %31
[M:4/4] BAGF GABc | B2 dB c2 A2 | BAGF EFDC |[M:1/4] B,2 |[M:3/4] z E F2 F2 |[M:4/4] G2 F=E FGF_E | %37
 D2 DE F2 F2 | G2 F=E FGF_E | D2 FF B2 F2 | B2 FF Bcde | c2 dB c2 A2 | BAGF EFDC | B,8 |] %44
V:2
 B,,2 D,2 F,2 D,2 | B,,2 D,2 F,2 D,2 | E,2 G,2 z2 G2 | E,2 G,2 B,2 G,2 | F,,2 F,2 A,2 C2 | %5
 F,2 A,2 C2 A,2 | B,,2 D,2 E,2 F,2 | B,,2 D,2 F,4 | B,,2 D,2 F,2 D,2 | B,,2 D,2 F,2 D,2 | %10
 E,2 G,2 z2 G2 | E,2 G,2 B,2 G,2 | F,,2 F,2 A,2 C2 | F,2 A,2 C2 A,2 | E,2 G,2 E,2 F,2 | %15
 B,,2 D,2 B,4 | z4 F,4 | B,,2 E,2 G,2 B,2 | E,2 G,2 B,2 G,2 | E,2 B,,2 D,2 F,2 | B,,4 D,4 | %21
 D,4 [F,B,]4 | F,2 A,2 F,2 B,2 | F,2 A,2 C2 E2 |[M:1/4] B,2 |[M:3/4] B,2 [F,A,]2 C2 | %26
[M:4/4] [E,G,B,]4 [E,F,A,]4 | B,4 [F,A,]2 C2 | [E,G,B,]4 [E,F,A,]4 |[M:1/4] B,,2 | %30
[M:3/4] B,2 [F,A,]2 C2 |[M:4/4] [E,G,B,]4 [E,F,A,]4 | B,4 [F,A,]2 C2 | [E,G,B,]4 [E,F,A,]4 | %34
[M:1/4] B,,2 |[M:3/4] [D,F,]4 [D,F,]2 |[M:4/4] E2 z2 .C2 z2 | B,2 F,2 D,2 [D,F,]2 | %38
 E,2 [G,B,]2 E,2 [F,A,]2 | B,2 F,2 D,2 F,2 | B,2 F,2 D,2 F,2 | F,2 B,2 F,2 [A,C]2 | %42
 E,2 [G,B,]2 C,2 [E,F,]2 | [B,,D,F,]8 |] %44
V:3
 x8 | x8 | z4 B,4 | x8 | x8 | x8 | x8 | x8 | x8 | x8 | z4 B,4 | x8 | x8 | x8 | x8 | x8 | %16
 B,,2 D,2 z2 B,2 | x8 | x8 | x8 | x8 | x8 | x8 | x8 |[M:1/4] x2 |[M:3/4] x6 |[M:4/4] x8 | x8 | x8 | %29
[M:1/4] x2 |[M:3/4] x6 |[M:4/4] x8 | x8 | x8 |[M:1/4] x2 |[M:3/4] x6 | %36
[M:4/4] [E,G,B,]4 [E,F,A,]-[E,-F,-A,-E][E,-F,-A,-D][E,F,A,C] | x8 | x8 | x8 | x8 | x8 | x8 | x8 |] %44
V:4
 x8 | x8 | x8 | x8 | x8 | x8 | z2[K:bass] F,2 z2 A,2 | x8 | x6[K:treble] x2 | x8 | x8 | x8 | x8 | %13
 x8 | z2 B,2 z2 A,2 | z2[K:bass] F,2 z4 | x8 | x8 | x8 | x8 | z4[K:bass] z2 E2 | x8 | z2 C2 z2 D2 | %23
 x8 |[M:1/4] x2 |[M:3/4] x6 |[M:4/4] x8 | x8 | x8 |[M:1/4] x2 |[M:3/4] x6 |[M:4/4] x8 | x8 | x8 | %34
[M:1/4] x2 |[M:3/4] D4 z2 |[M:4/4] x8 | x8 | x8 | x8 | x8 | x8 | x8 | x8 |] %44
V:5
 x8 | x8 | x8 | x8 | x8 | x8 | x2[K:bass] x6 | x8 | x6[K:treble] x2 | x8 | x8 | x8 | x8 | x8 | x8 | %15
 x2[K:bass] x6 | x8 | x8 | x8 | x8 | z4[K:bass] F,4 | x8 | x8 | x8 |[M:1/4] x2 |[M:3/4] x6 | %26
[M:4/4] x8 | x8 | x8 |[M:1/4] x2 |[M:3/4] x6 |[M:4/4] x8 | x8 | x8 |[M:1/4] x2 |[M:3/4] x6 | %36
[M:4/4] x8 | x8 | x8 | x8 | x8 | x8 | x8 | x8 |] %44

